images/icons/generic-calendar.svg

<svg fill="none" height="24" viewBox="0 0 24 24" width="24" xmlns="http://www.w3.org/2000/svg"><path d="m3.4 24c-.66 0-1.225-.235-1.695-.705s-.705-1.035-.705-1.695v-16.8c0-.66.235-1.225.705-1.695s1.035-.705 1.695-.705h1.2v-1.2c0-.34.115-.625.345-.855s.515-.345.855-.345.625.115.855.345.345.515.345.855v1.2h9.6v-1.2c0-.34.115-.625.345-.855s.515-.345.855-.345.625.115.855.345.345.515.345.855v1.2h1.2c.66 0 1.225.235 1.695.705s.705 1.035.705 1.695v16.8c0 .66-.235 1.225-.705 1.695s-1.035.705-1.695.705zm0-2.4h16.8v-12h-16.8zm8.4-7.2c-.34 0-.625-.115-.855-.345s-.345-.515-.345-.855.115-.625.345-.855.515-.345.855-.345.625.115.855.345.345.515.345.855-.115.625-.345.855-.515.345-.855.345zm-4.8 0c-.34 0-.625-.115-.855-.345s-.345-.515-.345-.855.115-.625.345-.855.515-.345.855-.345.625.115.855.345.345.515.345.855-.115.625-.345.855-.515.345-.855.345zm9.6 0c-.34 0-.625-.115-.855-.345s-.345-.515-.345-.855.115-.625.345-.855.515-.345.855-.345.625.115.855.345.345.515.345.855-.115.625-.345.855-.515.345-.855.345zm-4.8 4.8c-.34 0-.625-.115-.855-.345s-.345-.515-.345-.855.115-.625.345-.855.515-.345.855-.345.625.115.855.345.345.515.345.855-.115.625-.345.855-.515.345-.855.345zm-4.8 0c-.34 0-.625-.115-.855-.345s-.345-.515-.345-.855.115-.625.345-.855.515-.345.855-.345.625.115.855.345.345.515.345.855-.115.625-.345.855-.515.345-.855.345zm9.6 0c-.34 0-.625-.115-.855-.345s-.345-.515-.345-.855.115-.625.345-.855.515-.345.855-.345.625.115.855.345.345.515.345.855-.115.625-.345.855-.515.345-.855.345z" fill="#fff"/></svg>

<svg width="24" height="24" viewBox="0 0 24 24" fill="none" xmlns="http://www.w3.org/2000/svg">
<path d="M3.4 24C2.74 24 2.175 23.765 1.705 23.295C1.235 22.825 1 22.26 1 21.6V4.8C1 4.14 1.235 3.575 1.705 3.105C2.175 2.635 2.74 2.4 3.4 2.4H4.6V1.2C4.6 0.86 4.715 0.575 4.945 0.345C5.175 0.115 5.46 0 5.8 0C6.14 0 6.425 0.115 6.655 0.345C6.885 0.575 7 0.86 7 1.2V2.4H16.6V1.2C16.6 0.86 16.715 0.575 16.945 0.345C17.175 0.115 17.46 0 17.8 0C18.14 0 18.425 0.115 18.655 0.345C18.885 0.575 19 0.86 19 1.2V2.4H20.2C20.86 2.4 21.425 2.635 21.895 3.105C22.365 3.575 22.6 4.14 22.6 4.8V21.6C22.6 22.26 22.365 22.825 21.895 23.295C21.425 23.765 20.86 24 20.2 24H3.4ZM3.4 21.6H20.2V9.6H3.4V21.6ZM11.8 14.4C11.46 14.4 11.175 14.285 10.945 14.055C10.715 13.825 10.6 13.54 10.6 13.2C10.6 12.86 10.715 12.575 10.945 12.345C11.175 12.115 11.46 12 11.8 12C12.14 12 12.425 12.115 12.655 12.345C12.885 12.575 13 12.86 13 13.2C13 13.54 12.885 13.825 12.655 14.055C12.425 14.285 12.14 14.4 11.8 14.4ZM7 14.4C6.66 14.4 6.375 14.285 6.145 14.055C5.915 13.825 5.8 13.54 5.8 13.2C5.8 12.86 5.915 12.575 6.145 12.345C6.375 12.115 6.66 12 7 12C7.34 12 7.625 12.115 7.855 12.345C8.085 12.575 8.2 12.86 8.2 13.2C8.2 13.54 8.085 13.825 7.855 14.055C7.625 14.285 7.34 14.4 7 14.4ZM16.6 14.4C16.26 14.4 15.975 14.285 15.745 14.055C15.515 13.825 15.4 13.54 15.4 13.2C15.4 12.86 15.515 12.575 15.745 12.345C15.975 12.115 16.26 12 16.6 12C16.94 12 17.225 12.115 17.455 12.345C17.685 12.575 17.8 12.86 17.8 13.2C17.8 13.54 17.685 13.825 17.455 14.055C17.225 14.285 16.94 14.4 16.6 14.4ZM11.8 19.2C11.46 19.2 11.175 19.085 10.945 18.855C10.715 18.625 10.6 18.34 10.6 18C10.6 17.66 10.715 17.375 10.945 17.145C11.175 16.915 11.46 16.8 11.8 16.8C12.14 16.8 12.425 16.915 12.655 17.145C12.885 17.375 13 17.66 13 18C13 18.34 12.885 18.625 12.655 18.855C12.425 19.085 12.14 19.2 11.8 19.2ZM7 19.2C6.66 19.2 6.375 19.085 6.145 18.855C5.915 18.625 5.8 18.34 5.8 18C5.8 17.66 5.915 17.375 6.145 17.145C6.375 16.915 6.66 16.8 7 16.8C7.34 16.8 7.625 16.915 7.855 17.145C8.085 17.375 8.2 17.66 8.2 18C8.2 18.34 8.085 18.625 7.855 18.855C7.625 19.085 7.34 19.2 7 19.2ZM16.6 19.2C16.26 19.2 15.975 19.085 15.745 18.855C15.515 18.625 15.4 18.34 15.4 18C15.4 17.66 15.515 17.375 15.745 17.145C15.975 16.915 16.26 16.8 16.6 16.8C16.94 16.8 17.225 16.915 17.455 17.145C17.685 17.375 17.8 17.66 17.8 18C17.8 18.34 17.685 18.625 17.455 18.855C17.225 19.085 16.94 19.2 16.6 19.2Z" fill="white"/>
</svg>
